X: 1
T: Clodach Nic Ruairi's
M: 4/4
L: 1/8
R: reel
K: Dmaj
AF F2 DF F2 | AFBF AFGF | EFGA Bded | B2 BA Bcde |fedB AF F2 |
 BFAF DFAF |1 EFGA Bded | B2 BA BcdB :|2 Be ed e2 de | fedc Bcde ||
f2 de fgag | fedc BAFA | Beed e2 de | fedc Bcde | fedB AF F2 |
 BFAF DFAF |1 Be ed e2 de | fedc Bcde :|2 EFGA Bded | B2 BA BcdB ||
